!!!!SEGMENT: pl-wumfc--n57152_a-s--mazure.krn
!!!cenid: 18xx:4121
!!!COM: A. S.
!!!COM-rismID: pe30018413
!!!CDT:
!!!CNT:
!!!OTL: Mazure
!!!PDT:
!!!AGN:
!!!SMS-siglum: PL-Wumfc
!!!SMS-shelfmark: N57152
!!!SMS-shelfwork: W
!!!SMS-variant:
!!!SMS-altvar:
!!!NIFC-rismSourceID: 1001177938
!!!NIFC-rismChildID: 1001177938
!!!NIFC-islandoraID: pl-wumfc:8142
!!!URL-pdf-islandora: https://repozytorium.nifc.pl/islandora/object/pl-wumfc%3A8142/datastream/PDF/view
!!!URL-scan: https://polish.musicsources.pl/pl/lokalizacje/galeria/druki-muzyczne/12599/1 @EN{Scan on Polish Music Sources Website} @PL{Skany w portalu Dziedzictwo Muzyki Polskiej w otwartym dostępie}
!!!ONB-nifc:
!!!AIN: 1 piano
!!!key: D
**kern	**kern	**dynam
*part1	*part1	*part1
*staff2	*staff1	*
*I"Mazur	*I"Mazur	*
*>[A,A,B,B,C,C,D,D]	*>[A,A,B,B,C,C,D,D]	*
*>A	*>A	*
*Ipiano	*Ipiano	*
*ICklav	*ICklav	*
*clefF4	*clefG2	*
*k[f#c#]	*k[f#c#]	*
*D:	*D:	*
*M3/8	*M3/8	*
=1	=1	=1
8D 8DD/	16.dd\LL	f
.	32ff#\JJk	.
4d 4A 4F# 4D\	4aaT\	.
=2	=2	=2
16dLL 16B 16G 16D\	16bb\LL	.
16dJJ 16B 16G 16D\	16bb\JJ	.
16dKL 16B 16G 16D\	16gg#X\KL	f
8.dJ 8.B 8.G 8.D\	8.dddJ 8.dd\	.
=3	=3	=3
8dL 8A 8F# 8D\	16.ff#\LL	.
.	32gg#X\K	.
8d 8A 8F# 8D\	16.aa\	.
.	32aa\K	.
8dJ 8A 8F# 8D\	16.bb\	.
.	32aa\JJk	.
=4	=4	=4
8A 8AA/	16.ee\LL	.
.	32ff#\K	.
8gL 8e 8A\	16.gg\	.
.	32aa\JK	.
8f#J 8d 8A\	8dd\J	.
!!LO:LB:g=original
=5:|!|:	=5:|!|:	=5:|!|:
*>B	*>B	*
!	!LO:TX:i:a:t=Clar. Dolce	!
8E 8EE/	(16ff#\LL	p
.	16ee\	.
8dL 8B 8G#X 8E\	16dd#X\	.
.	16ee\	.
8dJ 8B 8G# 8E\	16ff#\	.
.	16gg#X\JJ)	.
=6	=6	=6
8A 8AA/	(16aa\LL	.
.	16bb\JJ)	.
8c#L 8A 8E\	4ccc#\	.
8c#J 8A 8E\	.	.
=7	=7	=7
8E 8EE/	(16ddd\LL	.
.	16bb\	.
8dL 8B 8G#X 8E\	16aa#X\	.
.	16bb\	.
8eJ 8B 8G# 8E\	16fff#\	.
.	16eee\JJ)	.
=8	=8	=8
8A 8AA/	(16bb#X\LL	.
.	16ccc#\JJ)	.
8c#L 8A 8E\	4aa\	.
8c#J 8A 8E\	.	.
=9	=9	=9
8dL 8B 8F# 8D\	(16ddd\LL	.
.	16ff#\	.
8d 8B 8F# 8D\	16ee#X\	.
.	16ff#\	.
8dJ 8B 8F# 8D\	16gg#X\	.
.	16aa\JJ)	.
!!LO:LB:g=original
=10	=10	=10
8A 8AA/	(16ee\LL	.
.	16aa\JJ)	.
8c#L 8A 8E\	8.cc#\L	.
8c#J 8A 8E\	.	.
.	16ee\Jk	.
=11	=11	=11
8E 8EE/	(16dd#X\LL	.
.	16ee\	.
8dL 8B 8G#X 8E\	16.gg#X\	.
.	32ff#\K	.
8dJ 8B 8G# 8E\	16.g#y\	.
.	32b\JJk)	.
=12	=12	=12
!LO:TX:t=P:problem:mixed beam	!	!
8c#L 8A 8E\	16.dd\LL	.
.	32cc#\JJk	.
8AA/J	4a/	.
8r	.	.
=13:|!|:	=13:|!|:	=13:|!|:
*>C	*>C	*
*	*	*^
!LO:TX:t=P:problem:mixed beam	!	!	!
8AA/L	(16aa#X\LL	.	.
.	16bb\JJ)	.	.
8A\J	8ee\L	.	.
!LO:TX:t=P:problem:diminuendolike accent	!	!	!LO:DY:b=2
8g 8e 8c# 8A^<\	8eeJ 8cc# 8a\	f	f
*	*	*v	*v
=14	=14	=14
8DD/L	(16gg\LL	.
.	16ff#\JJ)	.
8D/J	8dd\L	.
!LO:TX:t=P:problem:diminuendolike accent	!	!
8f# 8d 8A^<\	8ddJ 8a 8f#\	.
!!LO:PB:g=original
=15	=15	=15
!LO:TX:t=P:problem:mixed beam	!	!
8AA/L	(16ff#\LL	.
.	16ee\	.
8A\J	16g#X\	.
.	16a\	.
!LO:TX:t=P:problem:diminuendolike accent	!	!
8g 8e 8c# 8A^<\	16b\	.
.	16cc#\JJ)	.
=16	=16	=16
!LO:TX:t=P:problem:mixed beam	!	!
8D\L	(16dd\LL	.
.	16ee\	.
8d\J	16ff#\	.
.	16gg\	.
!LO:TX:t=P:problem:diminuendolike accent	!	!
8f# 8d 8A^<\	16gg#X\	.
.	16aa\JJ)	.
=17	=17	=17
!LO:TX:t=P:problem:mixed beam	!	!
8AA/L	(16aa#X\LL	.
.	16bb\JJ)	.
8A\J	8ee\L	.
!LO:TX:t=P:problem:diminuendolike accent	!	!
8g 8e 8c# 8A^<\	8eeJ 8cc# 8a\	<[
=18	=18	=18
!LO:TX:t=P:problem:mixed beam	!	!
8DD/L	(16gg\LL	.
.	16ff#\JJ)	.
8D\J	8dd\L	.
!LO:TX:t=P:problem:diminuendolike accent	!	!
8f# 8d 8A^<\	8ddJ 8a 8f#\	<[
=19	=19	=19
!LO:TX:t=P:problem:mixed beam	!	!
8AA/L	16ff#\LL	.
.	(16ee\	.
8A\J	16g#X\	.
.	16a\	.
!LO:TX:t=P:problem:diminuendolike accent	!	!
8g 8e 8c# 8A^<\	16b\	.
.	16cc#\JJ)	.
!!LO:LB:g=original
=	=	=
!LO:TX:t=P:problem:mixed beam	!	!
8f#L 8c# 8A\	(16ee\LL	.
.	16dd\JJ	.
!	!LO:TX:i:a:t=Flauto Dolce	!
8D/J	8dd\)	.
*kcancel	*kcancel	*
!!LO:TX:t=P:problem:odwrotna kolejność krzyżyka i kasownika
=20!|:	=20!|:	=20!|:
*>D	*>D	*
*k[f#]	*k[f#]	*
8r	16b\LL	.
.	16cc\JJ	.
=21	=21	=21
.	8qee/	.
8BB\L	(16dd\LL	.
.	16cc#X\	.
8G 8D\	16dd\	.
.	16ee\	.
8GJ 8D\	16ff#\	.
.	16gg\JJ)	.
=22	=22	=22
8Cn\L	(8.aa\L	<
8A 8E\	.	.
.	16gg\L	.
8AJ 8E\	16ee\	.
.	16ccn\JJ)	[[
=23	=23	=23
.	8qff#/	.
8C#X\L	(16ee\LL	.
.	16dd#X\	.
8A 8E\	16ee\	.
.	16ff#\	.
8AJ 8E\	16gg\	.
.	16gg#X\JJ)	.
=24	=24	=24
8D\L	(8.bb\L	<
8A 8F#\	.	.
.	16aa\L	.
8AJ 8F#\	16ff#\	.
.	16dd\JJ)	[[
!!LO:LB:g=original
=25	=25	=25
8Cn\L	(4eee\	.
8A 8F#\	.	.
8AJ 8F#\	16ddd\LL	.
.	16cccn\JJ)	.
=26	=26	=26
8BB\L	(16cccn\LL	.
.	16bb\	.
8G 8D\	16ddd\	.
.	16ccc\	.
8AJ 8E 8Cn\	16ee\	.
.	16aa\JJ)	.
=27	=27	=27
8BL 8G 8D\	(16gg\LL	.
.	16ff#\	.
8c 8A 8F# 8D\	16ee\	.
.	16dd\	.
8cJ 8A 8F# 8D\	16ee\	.
.	16ff#\JJ)	.
=28	=28	=28
8BL 8G 8D\	(16aa\LL	.
.	16gg\JJ)	.
8BJ 8G 8D\	4gg\	.
8r	.	.
=:|!	=:|!	=:|!
*-	*-	*-
!!!system-decoration: {(p1)}
!!!ENC: Andrzej Gręziak
!!!END: 2022-08-24
!!!ENC: Kamil Watkowski
!!!END: 2022-09-30
!!!RDF**kern: > = above
!!!RDF**kern: < = below
!!!RDF**dynam: f = f.
!!!RDF**dynam: p = p.!!!YEC: Copyright 2022 Narodowy Instytut Fryderyka Chopina (https://polishscores.org)
!!!YEM: License CC-BY-4.0 (https://creativecommons.org/licenses/by/4.0)
